X:10189
T:Maloney's Wife
R:jig
S:Charlie Harris
H:
N:
D:Taped at Milltown
Z:Adrian Scahill
M:6/8
L:1/8
K:D
F2A AFA|AFA AFD|GAG FGA|BGE EDE|\
F2A AFA|AFA d2A|Bcd edB|AFD D3:||
ecA Bcd|ecA A2F|GAG FGA|BGE E2d|\
eAA fAA|ecA d2A|Bcd edB|1 AFD D2d:|2 AFD D2f||\
gag fgf|efe def|gag fga|bge e2f|\
gag fgf|efe d2A|Bcd edB|AFD D3:||
